assets/img/components/stepper.svg

<svg width="272" height="143" viewBox="0 0 272 143" fill="none" xmlns="http://www.w3.org/2000/svg">
<rect width="272" height="143" rx="8" fill="#EDEDED"/>
<circle cx="66.75" cy="30" r="13.25" fill="black"/>
<circle cx="66.75" cy="71.5" r="13.25" fill="#154973"/>
<circle cx="66.75" cy="113" r="12.25" fill="white" stroke="#A7A9AB" stroke-width="2"/>
<path d="M68.7598 36H66.2038V27.288L64.2058 29.322L62.7478 27.792L66.5278 23.994H68.7598V36Z" fill="white"/>
<path d="M71.2355 77.75H62.1995V75.734C67.1135 72.098 68.5535 70.874 68.5535 69.398C68.5535 68.336 67.5995 67.832 66.6095 67.832C65.2415 67.832 64.1975 68.372 63.3875 69.218L61.9295 67.526C63.0995 66.176 64.8815 65.564 66.5555 65.564C69.1295 65.564 71.1455 67.004 71.1455 69.398C71.1455 71.45 69.4535 73.232 66.3395 75.5H71.2355V77.75Z" fill="white"/>
<path d="M66.5618 119.466C64.3658 119.466 62.7098 118.62 61.8278 117.54L63.1778 115.83C63.9878 116.694 65.3018 117.198 66.4718 117.198C67.9298 117.198 68.7398 116.568 68.7398 115.668C68.7398 114.714 68.0018 114.282 66.3278 114.282C65.8238 114.282 65.0138 114.3 64.8338 114.318V112.014C65.0498 112.032 65.8778 112.032 66.3278 112.032C67.6598 112.032 68.5598 111.636 68.5598 110.754C68.5598 109.8 67.5698 109.332 66.3278 109.332C65.1578 109.332 64.1138 109.764 63.2678 110.574L61.9898 108.972C62.9618 107.874 64.4738 107.064 66.5798 107.064C69.3878 107.064 71.1158 108.324 71.1158 110.322C71.1158 111.834 69.8198 112.824 68.4878 113.058C69.7118 113.184 71.2958 114.138 71.2958 115.938C71.2958 118.008 69.4418 119.466 66.5618 119.466Z" fill="#1B1B1B"/>
<path d="M93.5 31.5C93.5 29.8431 94.8431 28.5 96.5 28.5H181.5C183.157 28.5 184.5 29.8431 184.5 31.5C184.5 33.1569 183.157 34.5 181.5 34.5H96.5C94.8431 34.5 93.5 33.1569 93.5 31.5Z" fill="#457AA5"/>
<path d="M93.5 113C93.5 111.343 94.8431 110 96.5 110H194.5C196.157 110 197.5 111.343 197.5 113C197.5 114.657 196.157 116 194.5 116H96.5C94.8431 116 93.5 114.657 93.5 113Z" fill="#A7A9AB"/>
<path d="M93.5 72.25C93.5 70.5931 94.8431 69.25 96.5 69.25H224.5C226.157 69.25 227.5 70.5931 227.5 72.25C227.5 73.9069 226.157 75.25 224.5 75.25H96.5C94.8431 75.25 93.5 73.9069 93.5 72.25Z" fill="#154973"/>
<line x1="67.25" y1="46.0625" x2="67.25" y2="55.4375" stroke="#62666A" stroke-linecap="round"/>
<line x1="67.25" y1="87.5625" x2="67.25" y2="96.9375" stroke="#62666A" stroke-linecap="round"/>
</svg>

<svg xmlns="http://www.w3.org/2000/svg" width="272" height="143" fill="none" viewBox="0 0 272 143"><rect width="272" height="143" fill="#ededed" rx="8"/><circle cx="66.75" cy="30" r="13.25" fill="#000"/><circle cx="66.75" cy="71.5" r="13.25" fill="#154973"/><circle cx="66.75" cy="113" r="12.25" fill="#fff" stroke="#a7a9ab" stroke-width="2"/><path fill="#fff" d="M68.76 36h-2.556v-8.712l-1.998 2.034-1.458-1.53 3.78-3.798h2.232zM71.236 77.75h-9.037v-2.016c4.915-3.636 6.355-4.86 6.355-6.336 0-1.062-.954-1.566-1.945-1.566-1.367 0-2.411.54-3.221 1.386l-1.459-1.692c1.17-1.35 2.953-1.962 4.626-1.962 2.574 0 4.59 1.44 4.59 3.834 0 2.052-1.691 3.834-4.805 6.102h4.895z"/><path fill="#1b1b1b" d="M66.562 119.466c-2.196 0-3.852-.846-4.734-1.926l1.35-1.71c.81.864 2.124 1.368 3.294 1.368 1.458 0 2.268-.63 2.268-1.53 0-.954-.738-1.386-2.412-1.386a28 28 0 0 0-1.494.036v-2.304c.216.018 1.044.018 1.494.018 1.332 0 2.232-.396 2.232-1.278 0-.954-.99-1.422-2.232-1.422-1.17 0-2.214.432-3.06 1.242l-1.278-1.602c.972-1.098 2.484-1.908 4.59-1.908 2.808 0 4.536 1.26 4.536 3.258 0 1.512-1.296 2.502-2.628 2.736 1.224.126 2.808 1.08 2.808 2.88 0 2.07-1.854 3.528-4.734 3.528"/><path fill="#457aa5" d="M93.5 31.5a3 3 0 0 1 3-3h85a3 3 0 1 1 0 6h-85a3 3 0 0 1-3-3"/><path fill="#a7a9ab" d="M93.5 113a3 3 0 0 1 3-3h98a3 3 0 1 1 0 6h-98a3 3 0 0 1-3-3"/><path fill="#154973" d="M93.5 72.25a3 3 0 0 1 3-3h128a3 3 0 1 1 0 6h-128a3 3 0 0 1-3-3"/><path stroke="#62666a" stroke-linecap="round" d="M67.25 46.063v9.375M67.25 87.563v9.375"/></svg>
